flaticon/army-badges/target-10.svg

<svg xmlns="http://www.w3.org/2000/svg" width="32" height="32" viewBox="0 0 24 24">
    <path d="M 12 0 C 5.398438 0 0 5.359375 0 12 C 0 18.640625 5.398438 24 12 24 C 18.601562 24 24 18.601562 24 12 C 24 5.398438 18.601562 0 12 0 Z M 12 23.199219 C 5.839844 23.199219 0.800781 18.160156 0.800781 12 C 0.800781 5.839844 5.839844 0.800781 12 0.800781 C 18.160156 0.800781 23.199219 5.839844 23.199219 12 C 23.199219 18.160156 18.160156 23.199219 12 23.199219 Z M 12 23.199219"/>
    <path d="M 12 1.601562 C 6.28125 1.601562 1.601562 6.28125 1.601562 12 C 1.601562 17.761719 6.28125 22.398438 12 22.398438 C 17.71875 22.398438 22.398438 17.761719 22.398438 12 C 22.398438 6.28125 17.71875 1.601562 12 1.601562 Z M 12 21.601562 C 6.71875 21.601562 2.398438 17.28125 2.398438 12 C 2.398438 6.71875 6.71875 2.398438 12 2.398438 C 17.28125 2.398438 21.601562 6.71875 21.601562 12 C 21.601562 17.28125 17.28125 21.601562 12 21.601562 Z M 12 21.601562"/>
    <path d="M 17.480469 6.519531 C 17.320312 6.359375 17.078125 6.359375 16.921875 6.519531 L 15.664062 7.773438 C 14.679688 6.917969 13.398438 6.398438 12 6.398438 C 10.601562 6.398438 9.320312 6.917969 8.335938 7.773438 L 7.078125 6.519531 C 6.921875 6.359375 6.679688 6.359375 6.519531 6.519531 C 6.359375 6.679688 6.359375 6.921875 6.519531 7.078125 L 7.773438 8.335938 C 6.917969 9.320312 6.398438 10.601562 6.398438 12 C 6.398438 13.398438 6.917969 14.679688 7.773438 15.664062 L 6.519531 16.921875 C 6.359375 17.078125 6.359375 17.320312 6.519531 17.480469 C 6.601562 17.558594 6.679688 17.601562 6.800781 17.601562 C 6.921875 17.601562 7 17.558594 7.078125 17.480469 L 8.335938 16.226562 C 9.320312 17.082031 10.601562 17.601562 12 17.601562 C 13.398438 17.601562 14.679688 17.082031 15.664062 16.226562 L 16.917969 17.480469 C 17 17.558594 17.078125 17.601562 17.199219 17.601562 C 17.320312 17.601562 17.398438 17.558594 17.480469 17.480469 C 17.640625 17.320312 17.640625 17.078125 17.480469 16.921875 L 16.226562 15.664062 C 17.082031 14.679688 17.601562 13.398438 17.601562 12 C 17.601562 10.601562 17.082031 9.320312 16.226562 8.335938 L 17.480469 7.078125 C 17.640625 6.921875 17.640625 6.679688 17.480469 6.519531 Z M 16.800781 12 C 16.800781 13.179688 16.371094 14.261719 15.660156 15.097656 L 14.679688 14.121094 C 14.519531 13.960938 14.28125 13.960938 14.121094 14.121094 C 13.960938 14.28125 13.960938 14.519531 14.121094 14.679688 L 15.097656 15.660156 C 14.261719 16.371094 13.179688 16.800781 12 16.800781 C 10.820312 16.800781 9.738281 16.371094 8.902344 15.660156 L 9.878906 14.679688 C 10.039062 14.519531 10.039062 14.28125 9.878906 14.121094 C 9.71875 13.960938 9.480469 13.960938 9.320312 14.121094 L 8.339844 15.097656 C 7.628906 14.261719 7.199219 13.179688 7.199219 12 C 7.199219 10.820312 7.628906 9.738281 8.339844 8.902344 L 9.320312 9.878906 C 9.398438 9.960938 9.480469 10 9.601562 10 C 9.71875 10 9.800781 9.960938 9.878906 9.878906 C 10.039062 9.71875 10.039062 9.480469 9.878906 9.320312 L 8.902344 8.339844 C 9.738281 7.628906 10.820312 7.199219 12 7.199219 C 13.179688 7.199219 14.261719 7.628906 15.097656 8.339844 L 14.121094 9.320312 C 13.960938 9.480469 13.960938 9.71875 14.121094 9.878906 C 14.199219 9.960938 14.28125 10 14.398438 10 C 14.519531 10 14.601562 9.960938 14.679688 9.878906 L 15.660156 8.902344 C 16.371094 9.738281 16.800781 10.820312 16.800781 12 Z M 16.800781 12"/>
    <path d="M 13.601562 11.601562 L 12.398438 11.601562 L 12.398438 10.398438 C 12.398438 10.160156 12.238281 10 12 10 C 11.761719 10 11.601562 10.160156 11.601562 10.398438 L 11.601562 11.601562 L 10.398438 11.601562 C 10.160156 11.601562 10 11.761719 10 12 C 10 12.238281 10.160156 12.398438 10.398438 12.398438 L 11.601562 12.398438 L 11.601562 13.601562 C 11.601562 13.839844 11.761719 14 12 14 C 12.238281 14 12.398438 13.839844 12.398438 13.601562 L 12.398438 12.398438 L 13.601562 12.398438 C 13.839844 12.398438 14 12.238281 14 12 C 14 11.761719 13.839844 11.601562 13.601562 11.601562 Z M 13.601562 11.601562"/>
</svg>

<svg xmlns="http://www.w3.org/2000/svg" width="32" height="32" viewBox="0 0 24 24">
    <path d="M12 0C5.398 0 0 5.36 0 12s5.398 12 12 12 12-5.398 12-12S18.602 0 12 0zm0 23.2C5.84 23.2.8 18.16.8 12 .8 5.84 5.84.8 12 .8 18.16.8 23.2 5.84 23.2 12c0 6.16-5.04 11.2-11.2 11.2zm0 0"/>
    <path d="M12 1.602C6.281 1.602 1.602 6.282 1.602 12c0 5.762 4.68 10.398 10.398 10.398 5.719 0 10.398-4.636 10.398-10.398 0-5.719-4.68-10.398-10.398-10.398zm0 20c-5.281 0-9.602-4.32-9.602-9.602 0-5.281 4.32-9.602 9.602-9.602 5.281 0 9.602 4.32 9.602 9.602 0 5.281-4.32 9.602-9.602 9.602zm0 0"/>
    <path d="M17.48 6.52a.385.385 0 0 0-.558 0l-1.258 1.253a5.57 5.57 0 0 0-7.328 0L7.078 6.52a.385.385 0 0 0-.558 0 .385.385 0 0 0 0 .558l1.253 1.258a5.57 5.57 0 0 0 0 7.328L6.52 16.922a.385.385 0 0 0 0 .558c.082.079.16.122.28.122a.36.36 0 0 0 .278-.122l1.258-1.253a5.57 5.57 0 0 0 7.328 0l1.254 1.253c.082.079.16.122.281.122.121 0 .2-.043.281-.122a.385.385 0 0 0 0-.558l-1.253-1.258a5.57 5.57 0 0 0 0-7.328l1.253-1.258a.385.385 0 0 0 0-.558zM16.8 12c0 1.18-.429 2.262-1.14 3.098l-.98-.977a.385.385 0 0 0-.559 0 .385.385 0 0 0 0 .559l.977.98A4.768 4.768 0 0 1 12 16.8c-1.18 0-2.262-.429-3.098-1.14l.977-.98a.385.385 0 0 0 0-.559.385.385 0 0 0-.559 0l-.98.977A4.768 4.768 0 0 1 7.2 12c0-1.18.429-2.262 1.14-3.098l.98.977c.078.082.16.121.282.121.117 0 .199-.04.277-.121a.385.385 0 0 0 0-.559l-.977-.98A4.768 4.768 0 0 1 12 7.2c1.18 0 2.262.429 3.098 1.14l-.977.98a.385.385 0 0 0 0 .559c.078.082.16.121.277.121.122 0 .204-.04.282-.121l.98-.977A4.768 4.768 0 0 1 16.8 12zm0 0"/>
    <path d="M13.602 11.602h-1.204v-1.204c0-.238-.16-.398-.398-.398-.238 0-.398.16-.398.398v1.204h-1.204c-.238 0-.398.16-.398.398 0 .238.16.398.398.398h1.204v1.204c0 .238.16.398.398.398.238 0 .398-.16.398-.398v-1.204h1.204c.238 0 .398-.16.398-.398 0-.238-.16-.398-.398-.398zm0 0"/>
</svg>
